X:161
T: SO OFT ICH MEINE TOBAKSPFEIFE
N: B0649
O: Europa, Mitteleuropa, Deutschland
R: Moral -, Lob - Lied auf den Tabak
M: 3/4
L: 1/16
K: G
 | G4G4G4 | c6d_ed4 | c4_B2A2d4 | _B4A2B2G4 |
B4B4B4 | d6_e=f_B4 | c4A8 | _B12 |
G4G4G4 | c6d_ed4 | c4_B2A2d4 | _B4A2B2G4 |
B4B4B4 | d6_e=f_B4 | c4A8 | _B12 |
c4c4c4 | =f8A4 | d4c2_B2A2G2 | F12 |
D4F4A4 | c6d_ed4 | _B4G4F4 | G12

@@@ Tune index: 2379
